icons/1_Primary/Netim.svg

<svg xmlns="http://www.w3.org/2000/svg" viewBox="0 0 1024 1024">
   <circle cx="512" cy="512" r="512" style="fill:#fe8427"/>
   <path d="M775.66 510.82c-23.64-26.46-64.66-28.96-91.58-5.79l-15.65 13.46c18.63 10.33 31 30.68 29.74 53.85-1.57 29.9-26.14 53.85-56.04 54.79-32.88.94-59.8-25.36-59.8-57.92 1.57-40.7 32.88-57.92 58.71-57.92l-64.03-151.7c-13.78-32.56-51.66-47.9-84.69-34.44-6.89 2.97-25.67 10.8-36.16 34.6l-50.1 116.47-49.16-116.16c-13.62-32.56-51.66-47.9-84.69-34.44-33.19 13.46-48.84 50.72-35.07 83.13L345.16 664.4c13.78 32.56 51.66 47.9 84.69 34.44 10.18-4.54 25.83-12.37 36.16-34.6l50.1-116.47 49.16 116.32c7.36 17.38 21.6 29.9 38.35 35.69 21.6 7.83 46.96 4.07 65.44-11.9l100.97-87.2c26.77-23.33 29.27-63.56 5.64-89.86Z" style="fill:#fff"/>
</svg>

<svg width="1024" height="1024" viewBox="0 0 1024 1024" fill="none" xmlns="http://www.w3.org/2000/svg">
<g clip-path="url(#clip0_2_2904)">
<path d="M512 1024C794.77 1024 1024 794.77 1024 512C1024 229.23 794.77 0 512 0C229.23 0 0 229.23 0 512C0 794.77 229.23 1024 512 1024Z" fill="#F8C18C"/>
<path d="M775.66 510.82C752.02 484.36 711 481.86 684.08 505.03L668.43 518.49C687.06 528.82 699.43 549.17 698.17 572.34C696.6 602.24 672.03 626.19 642.13 627.13C609.25 628.07 582.33 601.77 582.33 569.21C583.9 528.51 615.21 511.29 641.04 511.29L577.01 359.59C563.23 327.03 525.35 311.69 492.32 325.15C485.43 328.12 466.65 335.95 456.16 359.75L406.06 476.22L356.9 360.06C343.28 327.5 305.24 312.16 272.21 325.62C239.02 339.08 223.37 376.34 237.14 408.75L345.16 664.4C358.94 696.96 396.82 712.3 429.85 698.84C440.03 694.3 455.68 686.47 466.01 664.24L516.11 547.77L565.27 664.09C572.63 681.47 586.87 693.99 603.62 699.78C625.22 707.61 650.58 703.85 669.06 687.88L770.03 600.68C796.8 577.35 799.3 537.12 775.67 510.82H775.66Z" fill="white"/>
</g>
<defs>
<clipPath id="clip0_2_2904">
<rect width="1024" height="1024" fill="white"/>
</clipPath>
</defs>
</svg>
